img/methodology_icons/project_implementation.svg

<?xml version="1.0" ?><svg height="48px" id="Layer_1" style="enable-background:new 0 0 48 48;" version="1.1" viewBox="0 0 48 48" width="48px" xml:space="preserve" xmlns="http://www.w3.org/2000/svg" xmlns:xlink="http://www.w3.org/1999/xlink"><style type="text/css">
	.st0{fill:#616161;}
</style><path class="st0" d="M46,0H2C0.9,0,0,0.9,0,2v36c0,1.1,0.9,2,2,2h24v-2H10V8h36v20h2V2C48,0.9,47.1,0,46,0z M8,38H2V8h6V38z M30,4  c0-1.1046,0.8954-2,2-2s2,0.8954,2,2c0,1.1045-0.8954,2-2,2C30.8954,6,30,5.1045,30,4z M36,4c0-1.1046,0.8954-2,2-2s2,0.8954,2,2  c0,1.1045-0.8954,2-2,2S36,5.1045,36,4z M42,4c0-1.1046,0.8954-2,2-2s2,0.8954,2,2c0,1.1045-0.8954,2-2,2S42,5.1045,42,4z M6,14H4  v-2h2V14z M6,18H4v-2h2V18z M6,22H4v-2h2V22z M6,26H4v-2h2V26z M6,30H4v-2h2V30z M6,34H4v-2h2V34z M17.7749,13.7382l-3.5367,1.2711  l3.5367,1.2462v1.7374l-5.3423-2.2639v-1.4644L17.7749,12V13.7382z M26.3075,16.2698l3.6058-1.28l-3.6058-1.2587v-1.7249  l5.4034,2.2638v1.459L26.3075,18V16.2698z M24,14.0031v2h-3.7749v-2C20.2251,14.0031,24,14.0031,24,14.0031z M12,20h6v2h-6V20z   M36,22H20v-2h16V22z M12,24h12v2H12V24z M36,26H26v-2h10V26z M44.8687,33.9597l1.6166-1.6166l-2.8284-2.8285l-1.6167,1.6167  c-0.6313-0.3723-1.313-0.6602-2.0402-0.8485V28h-2h-2v2.2828c-0.7272,0.1884-1.4088,0.4762-2.0402,0.8485l-1.6167-1.6167  l-2.8284,2.8285l1.6166,1.6166c-0.3723,0.6315-0.6602,1.313-0.8485,2.0403H28v4h2.2828c0.1884,0.7273,0.4762,1.4088,0.8485,2.0403  l-1.6166,1.6166l2.8284,2.8284l1.6167-1.6167c0.6315,0.3723,1.313,0.6603,2.0402,0.8486V48h2h2v-2.2828  c0.7272-0.1884,1.4087-0.4763,2.0402-0.8486l1.6167,1.6167l2.8284-2.8284l-1.6166-1.6166c0.3723-0.6315,0.6602-1.313,0.8485-2.0403  H48v-4h-2.2828C45.5288,35.2727,45.241,34.5912,44.8687,33.9597z M38,43c-2.7615,0-5-2.2386-5-5c0-2.7615,2.2385-5,5-5s5,2.2385,5,5  C43,40.7614,40.7615,43,38,43z"/></svg>

<?xml version="1.0" encoding="UTF-8" standalone="no"?>
<svg width="48px" height="48px" viewBox="0 0 48 48" version="1.1" xmlns="http://www.w3.org/2000/svg" xmlns:xlink="http://www.w3.org/1999/xlink" xmlns:sketch="http://www.bohemiancoding.com/sketch/ns">
    <!-- Generator: Sketch 3.4.2 (15855) - http://www.bohemiancoding.com/sketch -->
    <title>project_implementation</title>
    <desc>Created with Sketch.</desc>
    <defs></defs>
    <g id="Page-1" stroke="none" stroke-width="1" fill="none" fill-rule="evenodd" sketch:type="MSPage">
        <g id="project_implementation" sketch:type="MSLayerGroup" fill="#000000">
            <path d="M46,0 L2,0 C0.9,0 0,0.9 0,2 L0,38 C0,39.1 0.9,40 2,40 L26,40 L26,38 L10,38 L10,8 L46,8 L46,28 L48,28 L48,2 C48,0.9 47.1,0 46,0 L46,0 Z M8,38 L2,38 L2,8 L8,8 L8,38 L8,38 Z M30,4 C30,2.8954 30.8954,2 32,2 C33.1046,2 34,2.8954 34,4 C34,5.1045 33.1046,6 32,6 C30.8954,6 30,5.1045 30,4 L30,4 Z M36,4 C36,2.8954 36.8954,2 38,2 C39.1046,2 40,2.8954 40,4 C40,5.1045 39.1046,6 38,6 C36.8954,6 36,5.1045 36,4 L36,4 Z M42,4 C42,2.8954 42.8954,2 44,2 C45.1046,2 46,2.8954 46,4 C46,5.1045 45.1046,6 44,6 C42.8954,6 42,5.1045 42,4 L42,4 Z M6,14 L4,14 L4,12 L6,12 L6,14 L6,14 Z M6,18 L4,18 L4,16 L6,16 L6,18 L6,18 Z M6,22 L4,22 L4,20 L6,20 L6,22 L6,22 Z M6,26 L4,26 L4,24 L6,24 L6,26 L6,26 Z M6,30 L4,30 L4,28 L6,28 L6,30 L6,30 Z M6,34 L4,34 L4,32 L6,32 L6,34 L6,34 Z M17.7749,13.7382 L14.2382,15.0093 L17.7749,16.2555 L17.7749,17.9929 L12.4326,15.729 L12.4326,14.2646 L17.7749,12 L17.7749,13.7382 L17.7749,13.7382 Z M26.3075,16.2698 L29.9133,14.9898 L26.3075,13.7311 L26.3075,12.0062 L31.7109,14.27 L31.7109,15.729 L26.3075,18 L26.3075,16.2698 L26.3075,16.2698 Z M24,14.0031 L24,16.0031 L20.2251,16.0031 L20.2251,14.0031 L24,14.0031 L24,14.0031 Z M12,20 L18,20 L18,22 L12,22 L12,20 L12,20 Z M36,22 L20,22 L20,20 L36,20 L36,22 L36,22 Z M12,24 L24,24 L24,26 L12,26 L12,24 L12,24 Z M36,26 L26,26 L26,24 L36,24 L36,26 L36,26 Z M44.8687,33.9597 L46.4853,32.3431 L43.6569,29.5146 L42.0402,31.1313 C41.4089,30.759 40.7272,30.4711 40,30.2828 L40,28 L38,28 L36,28 L36,30.2828 C35.2728,30.4712 34.5912,30.759 33.9598,31.1313 L32.3431,29.5146 L29.5147,32.3431 L31.1313,33.9597 C30.759,34.5912 30.4711,35.2727 30.2828,36 L28,36 L28,40 L30.2828,40 C30.4712,40.7273 30.759,41.4088 31.1313,42.0403 L29.5147,43.6569 L32.3431,46.4853 L33.9598,44.8686 C34.5913,45.2409 35.2728,45.5289 36,45.7172 L36,48 L38,48 L40,48 L40,45.7172 C40.7272,45.5288 41.4087,45.2409 42.0402,44.8686 L43.6569,46.4853 L46.4853,43.6569 L44.8687,42.0403 C45.241,41.4088 45.5289,40.7273 45.7172,40 L48,40 L48,36 L45.7172,36 C45.5288,35.2727 45.241,34.5912 44.8687,33.9597 L44.8687,33.9597 Z M38,43 C35.2385,43 33,40.7614 33,38 C33,35.2385 35.2385,33 38,33 C40.7615,33 43,35.2385 43,38 C43,40.7614 40.7615,43 38,43 L38,43 Z" id="Shape" sketch:type="MSShapeGroup"></path>
        </g>
    </g>
</svg>
